24x24/places/folder-grey-music.svg

<svg xmlns="http://www.w3.org/2000/svg" width="24" height="24" version="1"><rect style="opacity:.2" width="20" height="12" x="2" y="9.5" rx="1" ry="1"/><path style="fill:#727272" d="M2 17c0 .554.446 1 1 1h18c.554 0 1-.446 1-1V6c0-.554-.446-1-1-1h-9c-1.5 0-2-2-3.5-2H3c-.554 0-1 .446-1 1"/><rect style="opacity:.2" width="20" height="12" x="2" y="8.5" rx="1" ry="1"/><rect style="fill:#f4f4f7" width="16" height="8" x="4" y="7" rx="1" ry="1"/><rect style="fill:#8e8e8e" width="20" height="12" x="2" y="9" rx="1" ry="1"/><path style="opacity:.1;fill:#f4f4f7" d="M3 3c-.554 0-1 .446-1 1v.5c0-.554.446-1 1-1h5.5c1.5 0 2 2 3.5 2h9c.554 0 1 .446 1 1V6c0-.554-.446-1-1-1h-9c-1.5 0-2-2-3.5-2z"/><path style="fill:#f4f4f7" d="M11 15.088a1.5 1.5 0 1 0 1 1.412V13h3v2.088a1.5 1.5 0 1 0 1 1.412v-5c0-.277-.334-.5-.75-.5h-3.5c-.416 0-.75.223-.75.5"/></svg>

<svg xmlns="http://www.w3.org/2000/svg" width="24" height="24" version="1">
 <rect style="opacity:0.2" width="20" height="12" x="2" y="9.5" rx="1" ry="1"/>
 <path style="fill:#727272" d="M 2,17 C 2,17.554 2.446,18 3,18 H 21 C 21.554,18 22,17.554 22,17 V 6 C 22,5.446 21.554,5 21,5 H 12 C 10.5,5 10,3 8.5,3 H 3 C 2.446,3 2,3.446 2,4"/>
 <rect style="opacity:0.2" width="20" height="12" x="2" y="8.5" rx="1" ry="1"/>
 <rect style="fill:#f4f4f7" width="16" height="8" x="4" y="7" rx="1" ry="1"/>
 <rect style="fill:#8e8e8e" width="20" height="12" x="2" y="9" rx="1" ry="1"/>
 <path style="opacity:0.1;fill:#f4f4f7" d="M 3,3 C 2.446,3 2,3.446 2,4 V 4.5 C 2,3.946 2.446,3.5 3,3.5 H 8.5 C 10,3.5 10.5,5.5 12,5.5 H 21 C 21.554,5.5 22,5.946 22,6.5 V 6 C 22,5.446 21.554,5 21,5 H 12 C 10.5,5 10,3 8.5,3 Z"/>
 <path style="fill:#f4f4f7" d="M 11,15.088 C 10.839,15.031 10.67,15.001 10.5,15 9.672,15 9,15.672 9,16.5 9,17.329 9.672,18 10.5,18 11.328,18 12,17.329 12,16.5 V 13 H 15 V 15.088 C 14.839,15.031 14.67,15.001 14.5,15 13.672,15 13,15.672 13,16.5 13,17.329 13.672,18 14.5,18 15.328,18 16,17.329 16,16.5 V 11.5 C 16,11.223 15.666,11 15.25,11 H 11.75 C 11.334,11 11,11.223 11,11.5"/>
</svg>
